app/assets/images/github-logo.svg

<svg fill="none" height="603" viewBox="0 0 2228 603" width="2228" xmlns="http://www.w3.org/2000/svg" xmlns:xlink="http://www.w3.org/1999/xlink"><clipPath id="a"><path d="m0 0h2228v603h-2228z"/></clipPath><g clip-path="url(#a)" fill="#100e0f"><path d="m429.109 258.075h-187.244c-4.825 0-8.722 3.9-8.722 8.728v91.617c0 4.829 3.897 8.79 8.722 8.79h73.054v113.841s-16.392 5.571-61.734 5.571c-53.507 0-128.232-19.562-128.232-183.977s77.817-186.081 150.872-186.081c63.218 0 90.498 11.143 107.818 16.528 5.444 1.672 10.454-3.776 10.454-8.604l20.908-88.5221c0-2.2905-.742-5.0142-3.34-6.8094-7.052-5.0142-49.981-29.0945565-158.48-29.0945565-124.953-.06190325-253.185 53.1749565-253.185 308.9590565 0 255.785 146.789 293.917 270.505 293.917 102.437 0 164.542-43.827 164.542-43.827 2.536-1.424 2.846-5.015 2.846-6.624v-285.684c0-4.828-3.898-8.728-8.722-8.728z"/><path d="m1394.03 30.6421c0-4.8904-3.83-8.7903-8.66-8.7903h-105.4c-4.83 0-8.73 3.9618-8.73 8.7903v203.8479h-164.29v-203.8479c0-4.8904-3.9-8.7903-8.72-8.7903h-105.41c-4.825 0-8.722 3.9618-8.722 8.7903v552.0539c0 4.89 3.897 8.852 8.722 8.852h105.41c4.82 0 8.72-3.962 8.72-8.852v-236.1h164.29l-.31 236.1c0 4.89 3.9 8.852 8.73 8.852h105.65c4.82 0 8.66-3.962 8.72-8.852z"/><path d="m628.044 103.069c0-38.0086-30.434-68.7127-67.982-68.7127s-67.982 30.7041-67.982 68.7127c0 38.009 30.434 68.713 67.982 68.713s67.982-30.766 67.982-68.713z"/><path d="m620.497 466.256v-254.794c0-4.829-3.897-8.791-8.722-8.791h-105.096c-4.825 0-9.155 4.953-9.155 9.843v365.106c0 10.709 6.68 13.928 15.34 13.928h94.705c10.392 0 12.928-5.076 12.928-14.114v-111.116z"/><path d="m1794.62 203.476h-104.6c-4.82 0-8.72 3.962-8.72 8.852v270.703s-26.6 19.438-64.27 19.438-47.76-17.147-47.76-54.103v-236.038c0-4.89-3.89-8.852-8.72-8.852h-106.15c-4.76 0-8.72 3.962-8.72 8.852v253.928c0 109.754 61.12 136.62 145.24 136.62 68.98 0 124.65-38.132 124.65-38.132s2.66 20.118 3.83 22.471c1.18 2.352 4.33 4.766 7.67 4.766l67.55-.309c4.77 0 8.73-3.962 8.73-8.791v-370.553c0-4.89-3.96-8.852-8.79-8.852z"/><path d="m2080.59 191.033c-59.44 0-99.84 26.557-99.84 26.557v-186.9479c0-4.8904-3.89-8.7903-8.72-8.7903h-105.71c-4.83 0-8.73 3.9618-8.73 8.7903v552.0539c0 4.89 3.9 8.852 8.73 8.852h73.36c3.28 0 5.81-1.733 7.67-4.705 1.79-2.971 4.45-25.442 4.45-25.442s43.24 40.98 125.08 40.98c96.07 0 151.18-48.78 151.18-218.952s-88.02-192.396-147.47-192.396zm-41.26 311.065c-36.31-1.115-60.86-17.581-60.86-17.581v-174.815s24.24-14.919 54.06-17.58c37.67-3.405 73.98 7.985 73.98 97.931 0 94.835-16.39 113.53-67.11 112.045z"/><path d="m923.477 202.548h-79.054s-.124-104.4932-.124-104.5551c0-3.9618-2.041-5.9427-6.619-5.9427h-107.756c-4.206 0-6.433 1.8571-6.433 5.8808v108.021s-54.002 13.062-57.652 14.114c-3.65 1.053-6.309 4.395-6.309 8.419v67.908c0 4.89 3.897 8.79 8.721 8.79h55.24v163.301c0 121.331 85.054 133.216 142.397 133.216 26.227 0 57.589-8.419 62.786-10.338 3.154-1.176 4.948-4.395 4.948-7.923v-74.656c.062-4.89-4.021-8.79-8.66-8.79s-16.392 1.857-28.516 1.857c-38.847 0-52.023-18.076-52.023-41.475 0-23.4 0-155.192 0-155.192h79.054c4.825 0 8.722-3.962 8.722-8.79v-85.055c0-4.891-3.897-8.79-8.722-8.79z"/></g></svg>

<svg width="2228" height="603" viewBox="0 0 2228 603" fill="none" xmlns="http://www.w3.org/2000/svg">
<g clip-path="url(#clip0_864_38)">
<path d="M429.109 258.075H241.865C237.04 258.075 233.143 261.975 233.143 266.803V358.42C233.143 363.249 237.04 367.21 241.865 367.21H314.919V481.051C314.919 481.051 298.527 486.622 253.185 486.622C199.678 486.622 124.953 467.06 124.953 302.645C124.953 138.23 202.77 116.564 275.825 116.564C339.043 116.564 366.323 127.707 383.643 133.092C389.087 134.764 394.097 129.316 394.097 124.488L415.005 35.9659C415.005 33.6754 414.263 30.9517 411.665 29.1565C404.613 24.1423 361.684 0.0619435 253.185 0.0619435C128.232 4.02478e-05 0 53.2369 0 309.021C0 564.806 146.789 602.938 270.505 602.938C372.942 602.938 435.047 559.111 435.047 559.111C437.583 557.687 437.893 554.096 437.893 552.487V266.803C437.893 261.975 433.995 258.075 429.171 258.075H429.109Z" fill="#100E0F"/>
<path d="M1394.03 30.6421C1394.03 25.7517 1390.2 21.8518 1385.37 21.8518H1279.97C1275.14 21.8518 1271.24 25.8136 1271.24 30.6421V234.49H1106.95V30.6421C1106.95 25.7517 1103.05 21.8518 1098.23 21.8518H992.82C987.995 21.8518 984.098 25.8136 984.098 30.6421V582.696C984.098 587.586 987.995 591.548 992.82 591.548H1098.23C1103.05 591.548 1106.95 587.586 1106.95 582.696V346.596H1271.24L1270.93 582.696C1270.93 587.586 1274.83 591.548 1279.66 591.548H1385.31C1390.13 591.548 1393.97 587.586 1394.03 582.696V30.6421Z" fill="#100E0F"/>
<path d="M628.044 103.069C628.044 65.0604 597.61 34.3563 560.062 34.3563C522.514 34.3563 492.08 65.0604 492.08 103.069C492.08 141.078 522.514 171.782 560.062 171.782C597.61 171.782 628.044 141.016 628.044 103.069Z" fill="#100E0F"/>
<path d="M620.497 466.256V211.462C620.497 206.633 616.6 202.671 611.775 202.671H506.679C501.854 202.671 497.524 207.624 497.524 212.514V577.62C497.524 588.329 504.204 591.548 512.864 591.548H607.569C617.961 591.548 620.497 586.472 620.497 577.434V466.318V466.256Z" fill="#100E0F"/>
<path d="M1794.62 203.476H1690.02C1685.2 203.476 1681.3 207.438 1681.3 212.328V483.031C1681.3 483.031 1654.7 502.469 1617.03 502.469C1579.36 502.469 1569.27 485.322 1569.27 448.366V212.328C1569.27 207.438 1565.38 203.476 1560.55 203.476H1454.4C1449.64 203.476 1445.68 207.438 1445.68 212.328V466.256C1445.68 576.01 1506.8 602.876 1590.92 602.876C1659.9 602.876 1715.57 564.744 1715.57 564.744C1715.57 564.744 1718.23 584.862 1719.4 587.215C1720.58 589.567 1723.73 591.981 1727.07 591.981L1794.62 591.672C1799.39 591.672 1803.35 587.71 1803.35 582.881V212.328C1803.35 207.438 1799.39 203.476 1794.56 203.476H1794.62Z" fill="#100E0F"/>
<path d="M2080.59 191.033C2021.15 191.033 1980.75 217.59 1980.75 217.59V30.6421C1980.75 25.7517 1976.86 21.8518 1972.03 21.8518H1866.32C1861.49 21.8518 1857.59 25.8136 1857.59 30.6421V582.696C1857.59 587.586 1861.49 591.548 1866.32 591.548H1939.68C1942.96 591.548 1945.49 589.815 1947.35 586.843C1949.14 583.872 1951.8 561.401 1951.8 561.401C1951.8 561.401 1995.04 602.381 2076.88 602.381C2172.95 602.381 2228.06 553.601 2228.06 383.429C2228.06 213.257 2140.04 191.033 2080.59 191.033ZM2039.33 502.098C2003.02 500.983 1978.47 484.517 1978.47 484.517V309.702C1978.47 309.702 2002.71 294.783 2032.53 292.122C2070.2 288.717 2106.51 300.107 2106.51 390.053C2106.51 484.888 2090.12 503.583 2039.4 502.098H2039.33Z" fill="#100E0F"/>
<path d="M923.477 202.548H844.423C844.423 202.548 844.299 98.0548 844.299 97.9929C844.299 94.0311 842.258 92.0502 837.68 92.0502H729.924C725.718 92.0502 723.491 93.9073 723.491 97.931V205.952C723.491 205.952 669.489 219.014 665.839 220.066C662.189 221.119 659.53 224.461 659.53 228.485V296.393C659.53 301.283 663.427 305.183 668.251 305.183H723.491V468.484C723.491 589.815 808.545 601.7 865.888 601.7C892.115 601.7 923.477 593.281 928.674 591.362C931.828 590.186 933.622 586.967 933.622 583.439V508.783C933.684 503.893 929.601 499.993 924.962 499.993C920.323 499.993 908.57 501.85 896.446 501.85C857.599 501.85 844.423 483.774 844.423 460.375C844.423 436.975 844.423 305.183 844.423 305.183H923.477C928.302 305.183 932.199 301.221 932.199 296.393V211.338C932.199 206.447 928.302 202.548 923.477 202.548Z" fill="#100E0F"/>
</g>
<defs>
<clipPath id="clip0_864_38">
<rect width="2228" height="603" fill="white"/>
</clipPath>
</defs>
</svg>
